X:4604
T:New Highland Laddie
O:england
C:Trad
S:Northumbrian Minstrelsy
M:4/4
K:G
G2 GB A2 AB|G2 GB A2 AB| G2  g2 d2 cB| ABcA B2 G2 :: d2de d2de |\
dgfe d2 cB | d2de d2de |dgfe d2 cB | c2ce B2Bd| A2AB c2 BA| G2 g2 d2cB|ABcA B2 G2 :|


